static/image/Adapter-Inheritance.svg

<?xml version="1.0" encoding="utf-8"?>
<!DOCTYPE svg PUBLIC "-//W3C//DTD SVG 1.1//EN" "http://www.w3.org/Graphics/SVG/1.1/DTD/svg11.dtd">
<svg height="332" viewBox="-0.5 -0.5 682 332" width="682" xmlns="http://www.w3.org/2000/svg" xmlns:xlink="http://www.w3.org/1999/xlink">
 <defs>
  <style>
   @import url(https://fonts.googleapis.com/css?family=Fira+Code);
  </style>
  <style>
   svg {
           color: gray; 
           font-size: 14px; 
           font-family: "Fira Code";
       } 
       .none-stroke {
           fill: none; 
           stroke: gray;
       } 
       .fill-stroke {
           fill: #333; 
           stroke: gray;
       } 
       foreignObject {
           width: 100%; 
           height: 100%;
       } 
       .leftdiv {
           overflow: visible; 
           text-align: left;
       } 
       .centerdiv {
           box-sizing:border-box; 
           text-align:center
       } 
       .normaldiv {
           display:inline-block; 
           line-height:1.2; 
           white-space:normal; 
           overflow-wrap:normal
       } 
       .flexcenter {
           display:flex; 
           align-items:unsafe center; 
           justify-content:unsafe center;
       }
       .flexstart {
           display:flex; 
           align-items:unsafe center; 
           justify-content:unsafe flex-start;
       } 
       .flexzero {height: 1px;}
  </style>
 </defs>
 <path d="M150 48h20l15.53-.39" fill="none" pointer-events="stroke" stroke="gray" stroke-miterlimit="10" stroke-width="2"/>
 <path d="m175.92 53.85 11.84-6.29-12.14-5.7" fill="none" pointer-events="all" stroke="gray" stroke-miterlimit="10" stroke-width="2"/>
 <path d="M0 23h150v50H0z" fill="none" pointer-events="all" stroke="gray"/>
 <foreignObject height="100%" pointer-events="none" requiredFeatures="http://www.w3.org/TR/SVG11/feature#Extensibility" style="overflow:visible;text-align:left" width="100%">
  <div style="display:flex;align-items:unsafe center;justify-content:unsafe center;width:148px;height:1px;padding-top:48px;margin-left:1px" xmlns="http://www.w3.org/1999/xhtml">
   <div data-drawio-colors="color: rgb(0, 0, 0);" style="box-sizing:border-box;font-size:0;text-align:center">
    <div style="display:inline-block;font-size:12px;font-family:Helvetica;color:#000;line-height:1.2;pointer-events:all;white-space:normal;overflow-wrap:normal">
     <font color="gray" face="Fira Code">
      <span style="font-size:15px">
       Client
       <br/>
      </span>
     </font>
    </div>
   </div>
  </div>
 </foreignObject>
 <path d="M190 10h180v50H190z" fill="none" pointer-events="all" stroke="gray"/>
 <foreignObject height="100%" pointer-events="none" requiredFeatures="http://www.w3.org/TR/SVG11/feature#Extensibility" style="overflow:visible;text-align:left" width="100%">
  <div style="display:flex;align-items:unsafe center;justify-content:unsafe center;width:178px;height:1px;padding-top:35px;margin-left:191px" xmlns="http://www.w3.org/1999/xhtml">
   <div data-drawio-colors="color: rgb(0, 0, 0);" style="box-sizing:border-box;font-size:0;text-align:center">
    <div style="display:inline-block;font-size:12px;font-family:Helvetica;color:#000;line-height:1.2;pointer-events:all;white-space:normal;overflow-wrap:normal">
     <font color="gray" face="Fira Code">
      <span style="font-size:15px">
       &lt;&lt;interface&gt;&gt;
       <br/>
       Client Interface
       <br/>
      </span>
     </font>
    </div>
   </div>
  </div>
 </foreignObject>
 <path d="M190 60h180v30H190z" fill="none" pointer-events="all" stroke="gray"/>
 <foreignObject height="100%" pointer-events="none" requiredFeatures="http://www.w3.org/TR/SVG11/feature#Extensibility" style="overflow:visible;text-align:left" width="100%">
  <div style="display:flex;align-items:unsafe center;justify-content:unsafe flex-start;width:178px;height:1px;padding-top:75px;margin-left:192px" xmlns="http://www.w3.org/1999/xhtml">
   <div data-drawio-colors="color: rgb(0, 0, 0);" style="box-sizing:border-box;font-size:0;text-align:left">
    <div style="display:inline-block;font-size:12px;font-family:Helvetica;color:#000;line-height:1.2;pointer-events:all;white-space:normal;overflow-wrap:normal">
     <div>
      <font color="gray" face="Fira Code">
       <span style="font-size:15px">
        + method(data)
       </span>
      </font>
     </div>
    </div>
   </div>
  </div>
 </foreignObject>
 <path d="M380 150v-30H280v-15.76" fill="none" pointer-events="stroke" stroke="gray" stroke-dasharray="6 6" stroke-miterlimit="10" stroke-width="2"/>
 <path d="m280 92.24 6 12h-12Z" fill="none" pointer-events="all" stroke="gray" stroke-miterlimit="10" stroke-width="2"/>
 <path d="M380 150v-30h165v-15.76" fill="none" pointer-events="stroke" stroke="gray" stroke-dasharray="6 6" stroke-miterlimit="10" stroke-width="2"/>
 <path d="m545 92.24 6 12h-12Z" fill="none" pointer-events="all" stroke="gray" stroke-miterlimit="10" stroke-width="2"/>
 <path d="M290 150h180v30H290z" fill="none" pointer-events="all" stroke="gray"/>
 <foreignObject height="100%" pointer-events="none" requiredFeatures="http://www.w3.org/TR/SVG11/feature#Extensibility" style="overflow:visible;text-align:left" width="100%">
  <div style="display:flex;align-items:unsafe center;justify-content:unsafe center;width:178px;height:1px;padding-top:165px;margin-left:291px" xmlns="http://www.w3.org/1999/xhtml">
   <div data-drawio-colors="color: rgb(0, 0, 0);" style="box-sizing:border-box;font-size:0;text-align:center">
    <div style="display:inline-block;font-size:12px;font-family:Helvetica;color:#000;line-height:1.2;pointer-events:all;white-space:normal;overflow-wrap:normal">
     <font color="gray" face="Fira Code">
      <span style="font-size:15px">
       Adapter
       <br/>
      </span>
     </font>
    </div>
   </div>
  </div>
 </foreignObject>
 <path d="M290 180h180v30H290z" fill="none" pointer-events="all" stroke="gray"/>
 <foreignObject height="100%" pointer-events="none" requiredFeatures="http://www.w3.org/TR/SVG11/feature#Extensibility" style="overflow:visible;text-align:left" width="100%">
  <div style="display:flex;align-items:unsafe center;justify-content:unsafe flex-start;width:178px;height:1px;padding-top:195px;margin-left:292px" xmlns="http://www.w3.org/1999/xhtml">
   <div data-drawio-colors="color: rgb(0, 0, 0);" style="box-sizing:border-box;font-size:0;text-align:left">
    <div style="display:inline-block;font-size:12px;font-family:Helvetica;color:#000;line-height:1.2;pointer-events:all;white-space:normal;overflow-wrap:normal">
     <div>
      <font color="gray" face="Fira Code">
       <span style="font-size:15px">
        - adaptee: Service
       </span>
      </font>
     </div>
    </div>
   </div>
  </div>
 </foreignObject>
 <path d="M290 210h180v30H290z" fill="none" pointer-events="all" stroke="gray"/>
 <foreignObject height="100%" pointer-events="none" requiredFeatures="http://www.w3.org/TR/SVG11/feature#Extensibility" style="overflow:visible;text-align:left" width="100%">
  <div style="display:flex;align-items:unsafe center;justify-content:unsafe flex-start;width:178px;height:1px;padding-top:225px;margin-left:292px" xmlns="http://www.w3.org/1999/xhtml">
   <div data-drawio-colors="color: rgb(0, 0, 0);" style="box-sizing:border-box;font-size:0;text-align:left">
    <div style="display:inline-block;font-size:12px;font-family:Helvetica;color:#000;line-height:1.2;pointer-events:all;white-space:normal;overflow-wrap:normal">
     <div>
      <font color="gray" face="Fira Code">
       <span style="font-size:15px">
        + method(data)
       </span>
      </font>
     </div>
    </div>
   </div>
  </div>
 </foreignObject>
 <path d="M410 0h270v30H410z" fill="none" pointer-events="all" stroke="gray"/>
 <foreignObject height="100%" pointer-events="none" requiredFeatures="http://www.w3.org/TR/SVG11/feature#Extensibility" style="overflow:visible;text-align:left" width="100%">
  <div style="display:flex;align-items:unsafe center;justify-content:unsafe center;width:268px;height:1px;padding-top:15px;margin-left:411px" xmlns="http://www.w3.org/1999/xhtml">
   <div data-drawio-colors="color: rgb(0, 0, 0);" style="box-sizing:border-box;font-size:0;text-align:center">
    <div style="display:inline-block;font-size:12px;font-family:Helvetica;color:#000;line-height:1.2;pointer-events:all;white-space:normal;overflow-wrap:normal">
     <font color="gray" face="Fira Code">
      <span style="font-size:15px">
       Service
       <br/>
      </span>
     </font>
    </div>
   </div>
  </div>
 </foreignObject>
 <path d="M410 30h270v30H410z" fill="none" pointer-events="all" stroke="gray"/>
 <foreignObject height="100%" pointer-events="none" requiredFeatures="http://www.w3.org/TR/SVG11/feature#Extensibility" style="overflow:visible;text-align:left" width="100%">
  <div style="display:flex;align-items:unsafe center;justify-content:unsafe flex-start;width:268px;height:1px;padding-top:45px;margin-left:412px" xmlns="http://www.w3.org/1999/xhtml">
   <div data-drawio-colors="color: rgb(0, 0, 0);" style="box-sizing:border-box;font-size:0;text-align:left">
    <div style="display:inline-block;font-size:12px;font-family:Helvetica;color:#000;line-height:1.2;pointer-events:all;white-space:normal;overflow-wrap:normal">
     <div>
      <font color="gray" face="Fira Code">
       <span style="font-size:15px">
        ...
       </span>
      </font>
     </div>
    </div>
   </div>
  </div>
 </foreignObject>
 <path d="M410 60h270v30H410z" fill="none" pointer-events="all" stroke="gray"/>
 <foreignObject height="100%" pointer-events="none" requiredFeatures="http://www.w3.org/TR/SVG11/feature#Extensibility" style="overflow:visible;text-align:left" width="100%">
  <div style="display:flex;align-items:unsafe center;justify-content:unsafe flex-start;width:268px;height:1px;padding-top:75px;margin-left:412px" xmlns="http://www.w3.org/1999/xhtml">
   <div data-drawio-colors="color: rgb(0, 0, 0);" style="box-sizing:border-box;font-size:0;text-align:left">
    <div style="display:inline-block;font-size:12px;font-family:Helvetica;color:#000;line-height:1.2;pointer-events:all;white-space:normal;overflow-wrap:normal">
     <div>
      <font color="gray" face="Fira Code">
       <span style="font-size:15px">
        + serviceMethod(specialDta)
       </span>
      </font>
     </div>
    </div>
   </div>
  </div>
 </foreignObject>
 <path d="M380 280v-40" fill="none" pointer-events="stroke" stroke="gray" stroke-dasharray="6 6" stroke-miterlimit="10" stroke-width="2"/>
 <path d="M185 280h380l10 10v40H185v-50Z" fill="#333" pointer-events="all" stroke="gray" stroke-miterlimit="10"/>
 <path d="M565 280v10h10Z" fill-opacity=".05" pointer-events="all"/>
 <path d="M565 280v10h10" fill="none" pointer-events="all" stroke="gray" stroke-miterlimit="10"/>
 <foreignObject height="100%" pointer-events="none" requiredFeatures="http://www.w3.org/TR/SVG11/feature#Extensibility" style="overflow:visible;text-align:left" width="100%">
  <div style="display:flex;align-items:unsafe center;justify-content:unsafe flex-start;width:388px;height:1px;padding-top:305px;margin-left:187px" xmlns="http://www.w3.org/1999/xhtml">
   <div data-drawio-colors="color: #808080;" style="box-sizing:border-box;font-size:0;text-align:left">
    <div style='display:inline-block;font-size:15px;font-family:"Fira Code";color:gray;line-height:1.2;pointer-events:all;white-space:normal;overflow-wrap:normal'>
     specialData = convertToServiceFormat(data)
     <br/>
     return adaptee.serviceMethod(specialData)
    </div>
   </div>
  </div>
 </foreignObject>
</svg>

<svg height="332px" version="1.1" viewBox="-0.5 -0.5 682 332" width="682px" xmlns="http://www.w3.org/2000/svg" xmlns:xlink="http://www.w3.org/1999/xlink"><defs/><path d="M 150 48 L 170 48 L 185.53 47.61" class="none-stroke" stroke-miterlimit="10" stroke-width="2"/><path d="M 175.92 53.85 L 187.76 47.56 L 175.62 41.86" class="none-stroke" stroke-miterlimit="10" stroke-width="2"/><rect height="50" class="none-stroke" width="150" x="0" y="23"/><foreignObject class="leftdiv" ><div class="flexcenter flexzero" style="width:148px;padding-top:48px;margin-left:1px" xmlns="http://www.w3.org/1999/xhtml"><div class="centerdiv"><div style="display:inline-block;line-height:1.2;white-space:normal;overflow-wrap:normal">Client<br/></div></div></div></foreignObject><rect height="50" class="none-stroke" width="180" x="190" y="10"/><foreignObject class="leftdiv" ><div class="flexcenter flexzero" style="width:178px;padding-top:35px;margin-left:191px" xmlns="http://www.w3.org/1999/xhtml"><div class="centerdiv"><div style="display:inline-block;line-height:1.2;white-space:normal;overflow-wrap:normal">&lt;&lt;interface&gt;&gt;<br/>Client Interface<br/></div></div></div></foreignObject><rect height="30" class="none-stroke" width="180" x="190" y="60"/><foreignObject class="leftdiv" ><div class="flexstart flexzero" style="width:178px;padding-top:75px;margin-left:192px" xmlns="http://www.w3.org/1999/xhtml"><div class="leftdiv"><div style="display:inline-block;line-height:1.2;white-space:normal;overflow-wrap:normal"><div style="">+ method(data)</div></div></div></div></foreignObject><path d="M 380 150 L 380 120 L 280 120 L 280 104.24" class="none-stroke" stroke-dasharray="6 6" stroke-miterlimit="10" stroke-width="2"/><path d="M 280 92.24 L 286 104.24 L 274 104.24 Z" class="none-stroke" stroke-miterlimit="10" stroke-width="2"/><path d="M 380 150 L 380 120 L 545 120 L 545 104.24" class="none-stroke" stroke-dasharray="6 6" stroke-miterlimit="10" stroke-width="2"/><path d="M 545 92.24 L 551 104.24 L 539 104.24 Z" class="none-stroke" stroke-miterlimit="10" stroke-width="2"/><rect height="30" class="none-stroke" width="180" x="290" y="150"/><foreignObject class="leftdiv" ><div class="flexcenter flexzero" style="width:178px;padding-top:165px;margin-left:291px" xmlns="http://www.w3.org/1999/xhtml"><div class="centerdiv"><div style="display:inline-block;line-height:1.2;white-space:normal;overflow-wrap:normal">Adapter<br/></div></div></div></foreignObject><rect height="30" class="none-stroke" width="180" x="290" y="180"/><foreignObject class="leftdiv" ><div class="flexstart flexzero" style="width:178px;padding-top:195px;margin-left:292px" xmlns="http://www.w3.org/1999/xhtml"><div class="leftdiv"><div style="display:inline-block;line-height:1.2;white-space:normal;overflow-wrap:normal"><div style="">- adaptee:Service</div></div></div></div></foreignObject><rect height="30" class="none-stroke" width="180" x="290" y="210"/><foreignObject class="leftdiv" ><div class="flexstart flexzero" style="width:178px;padding-top:225px;margin-left:292px" xmlns="http://www.w3.org/1999/xhtml"><div class="leftdiv"><div style="display:inline-block;line-height:1.2;white-space:normal;overflow-wrap:normal"><div style="">+ method(data)</div></div></div></div></foreignObject><rect height="30" class="none-stroke" width="270" x="410" y="0"/><foreignObject class="leftdiv" ><div class="flexcenter flexzero" style="width:268px;padding-top:15px;margin-left:411px" xmlns="http://www.w3.org/1999/xhtml"><div class="centerdiv"><div style="display:inline-block;line-height:1.2;white-space:normal;overflow-wrap:normal">Service<br/></div></div></div></foreignObject><rect height="30" class="none-stroke" width="270" x="410" y="30"/><foreignObject class="leftdiv" ><div class="flexstart flexzero" style="width:268px;padding-top:45px;margin-left:412px" xmlns="http://www.w3.org/1999/xhtml"><div class="leftdiv"><div style="display:inline-block;line-height:1.2;white-space:normal;overflow-wrap:normal"><div style="">...</div></div></div></div></foreignObject><rect height="30" class="none-stroke" width="270" x="410" y="60"/><foreignObject class="leftdiv" ><div class="flexstart flexzero" style="width:268px;padding-top:75px;margin-left:412px" xmlns="http://www.w3.org/1999/xhtml"><div class="leftdiv"><div style="display:inline-block;line-height:1.2;white-space:normal;overflow-wrap:normal"><div style="">+ serviceMethod(specialDta)</div></div></div></div></foreignObject><path d="M 380 280 L 380 240" class="none-stroke" stroke-dasharray="6 6" stroke-miterlimit="10" stroke-width="2"/><path d="M 185 280 L 565 280 L 575 290 L 575 330 L 185 330 L 185 280 Z" class="fill-stroke" stroke-miterlimit="10"/><path d="M 565 280 L 565 290 L 575 290 Z" fill="#000000" fill-opacity="0.05" stroke="none"/><path d="M 565 280 L 565 290 L 575 290" class="none-stroke" stroke-miterlimit="10"/><foreignObject class="leftdiv" ><div class="flexstart flexzero" style="width:388px;padding-top:305px;margin-left:187px" xmlns="http://www.w3.org/1999/xhtml"><div class="leftdiv"><div class="normaldiv">specialData = convertToServiceFormat(data)<br/>return adaptee.serviceMethod(specialData)</div></div></div></foreignObject></svg>
